X:1
T:Calon Lân, 87.87 D
T:John Hughes (1872-1914)
T:Calon Lân, 87.87 D
T:Public Domain
C:John Hughes (1872-1914)
Z:Public Domain
%%score ( 1 2 ) ( 3 4 )
L:1/8
M:6/4
K:A
V:1 treble 
V:2 treble 
V:3 bass 
V:4 bass 
V:1
 [CE]2 [CA]2 | [Ec]6 [CA]2 [DB]2 [Ec]2 | [EA]4 [CE]4 [DF]2 [DG]2 | [CA]6 [DF]2 [Fd]2 [Ec]2 | %4
 c4 B4 [CE]2 [EA]2 | [Ec]6 [EA]2 [EB]2 [Ac]2 | [EA]4 [DF]4 [FA]2 [EG][DF] | %7
 [CE]6 [EA]2 [EA]2 [EG]2 | [EA]8 [Ec]3 [EA] | [Ae]6 [Ac]2 [GB]2 A2 | [EA]4 [EG]4 [EB]3 [Ac] | %11
 [Gd]6 [Gd]2 [Ac]2 [GB]2 | [Ac]8 E2 E2 | [DF]6 [DF]2 [EG]2 [EG]2 | [EA]4 [EB]4 [CA]2 [DB]2 | %15
 [Ec]6 [EA]2 BA [EG]2 | [EA]8 |] %17
V:2
 x4 | x12 | x12 | x12 | E8 x4 | x12 | x12 | x12 | x12 | x10 A2 | x12 | x12 | x8 E2 E2 | x12 | x12 | %15
 x8 E2 x2 | x8 |] %17
V:3
 [A,,A,]2 [A,,A,]2 | [A,,A,]6 [A,,A,]2 [A,,A,]2 [A,,A,]2 | [A,,C]4 [A,,A,]4 [D,A,]2 [B,,B,]2 | %3
 [F,A,]6 [D,A,]2 [B,,A,]2 C,D, | A,4 G,4 [E,A,]2 [C,A,]2 | [A,,A,]6 [A,,C]2 [A,,D]2 [A,,E]2 | %6
 [A,,C]2 [C,A,]2 [D,A,]4 [D,A,]2 [D,A,]2 | [E,A,]6 [E,C]2 [E,B,]2 [E,D]2 | [A,,C]8 A,3 [A,C] | %9
 [A,C]6 [A,,E]2 [B,,E]2 [C,E]2 | C2 B,2 [E,B,]4 [E,G,]3 [E,A,] | B,4 z2 E,2 [E,E]2 [E,E]2 | %12
 [A,E]8 [C,A,]2 [C,A,]2 | [D,A,]6 [B,,B,]2 [E,B,]2 [E,D]2 | [A,C]4 [G,E]4 [F,A,]2 [=F,A,]2 | %15
 [E,A,]6 [E,C]2 DC [E,B,]2 | [A,,C]8 |] %17
V:4
 x4 | x12 | x12 | x10 A,2 | E,8 x4 | x12 | x12 | x12 | x8 A,3 x | x12 | E,4 x8 | E,6 E4 x2 | x12 | %13
 x12 | x12 | x8 E,2 x2 | x8 |] %17

